!!!!SEGMENT: pl-wtm--mus-iii-41-173_tarnowski-adam--mazur.krn
!!!cenid: 18xx:4350
!!!COM: Tarnowski, Adam
!!!COM-rismID: pe50042388
!!!CDT: 1816-1890/05/01
!!!CNT: Polish
!!!OTL: Mazur
!!!PDT:
!!!AGN:
!!!SMS-siglum: PL-Wtm
!!!SMS-shelfmark: Mus.III.41.173
!!!SMS-shelfwork: W
!!!SMS-variant:
!!!SMS-altvar:
!!!NIFC-rismSourceID: 1001136505
!!!NIFC-rismChildID: 1001136505
!!!NIFC-islandoraID: pl-wtm:15774
!!!URL-pdf-islandora: https://repozytorium.nifc.pl/islandora/object/pl-wtm:15774/datastream/PDF/view
!!!URL-scan: https://polish.musicsources.pl/pl/lokalizacje/galeria/druki-muzyczne/17113/1 @EN{Scan on Polish Music Sources Website} @PL{Skany w portalu Dziedzictwo Muzyki Polskiej w otwartym dostępie}
!!!ONB-nifc:
!!!AIN: 2 piano
!!!key: D
!!!OMD: MAZUR
**kern	**kern	**dynam
*part2	*part1	*part1
*staff2	*staff1	*
*>[A,A,B,B1,B,B2,A,C,C,A]	*>[A,A,B,B1,B,B2,A,C,C,A]	*>[A,A,B,B1,B,B2,A,C,C,A]
*>A	*>A	*>A
*I"Fortepian	*I"Fortepian	*
*Ipiano	*Ipiano	*
*ICklav	*ICklav	*
*clefF4	*clefG2	*
*k[f#c#]	*k[f#c#]	*
*D:	*D:	*
*M3/8	*M3/8	*
=1	=1	=1
*MM50	*MM50	*MM50
!	!	!LO:DY:rj
8DL 8DD\	8aL 8f#\	f
8A 8F# 8D\	8ddJ 8a 8f#\	<
.	(8qee/	.
8AJ 8G 8D\	16dd\LL)	[
!	!LO:N:vis=16	!
.	32r	.
.	32cc#\JJk	.
=2	=2	=2
8DL 8DD\	16.dd\LL	.
.	32ee\JJk	.
8d 8A 8F#\	8ff#'\L	.
8dJ 8A 8F#\	8dd'\J	.
=3	=3	=3
!	!	!LO:DY:rj
8AA 8AAA/	8aa 8ee 8cc# 8a\	f
8c#L 8A 8E\	8eeL 8cc#\	.
.	(8qff#/	.
8B#XJ 8A 8E\	16ee\L)	.
!	!LO:N:vis=16	!
.	32r	.
.	32dd#X\JJk	.
=4	=4	=4
*	*Xtuplet	*
8AA 8AAA/	24ee\LL	.
!	!LO:N:vis=24	!
.	(24.ff#\	.
.	48ee\JJk)	.
8eL 8c# 8A 8G\	8cc#'\L	.
8eJ 8c# 8A 8G\	8a'\J	.
!!LO:LB:g=original
=5	=5	=5
16DLL 16DD\	16cc#LL 16a\	.
!LO:N:vis=16	!LO:N:vis=16	!
32r	32r	.
32AJJk 32F# 32D\	32dd\JJk	.
8AL 8F# 8D\	16dd'\LL	.
.	16ee'\	.
8AJ 8G 8D\	16dd'\	.
.	16cc#'\JJ	.
=6	=6	=6
.	(8qee/	.
8DL 8DD\	16.dd\LL)	.
.	32ee\JJk	.
8d 8A 8F#\	8ff#\L	.
8dJ 8A 8F#\	8dd\J	.
=7	=7	=7
8AA 8AAA/	8aa 8ee 8cc# 8a\	<
.	.	[
8c#L 8A 8E\	8eeL 8cc#\	.
.	8qff#/	.
8B#XJ 8A 8E\	16.ee\L	.
.	32dd#X\JJk	.
=8	=8	=8
*	*tuplet	*
!	!LO:TUP:a:problem:klamra łukowa	!
8AA\L	24ee\LL	.
.	24ff#\	.
.	24ee\JJ	.
8c# 8A 8E\	8cc#'\L	.
8c#J 8A 8E\	8a'\J	.
!!LO:LB:g=original
=9	=9	=9
8GG 8GGG/	8bb 8gg 8dd 8b\	ff
8BL 8G 8D\	8ggL 8dd 8b\	.
.	8qqaa/	.
!	!LO:N:vis=16	!
8BJ 8G 8D\	16.gg\L	.
.	32ff#\JJk	.
=10	=10	=10
8GG 8GGG/	16.gg\LL	.
.	32aa\JJk	.
8BL 8G 8D\	8bb\L	.
8BJ 8G 8D\	8gg\J	.
=11	=11	=11
8DL 8DD\	8aaL 8ff#'\	.
8d 8A 8F#\	8ff#J 8dd'\	.
.	(8qgg/	.
8dJ 8A 8F#\	16ff#\LL)	.
!	!LO:N:vis=16	!
.	32r	.
.	32ee\JJk	.
=12	=12	=12
8DL 8DD\	16.ff#\LL	.
.	32a\K	.
8d 8A 8F#\	16.dd\	.
.	32ff#\K	.
8dJ 8A 8F#\	16bb\	.
.	16aa\JJ	.
!!LO:LB:g=original
=13	=13	=13
.	(8qff#/	.
8AA\L	8gg\L)	.
8e 8c# 8A\	8a 8g'\	.
8eJ 8c# 8A\	8aJ 8g'\	.
=14	=14	=14
!	!LO:TUP:a:problem:klamra łukowa	!
8AA\L	24a\LL	.
.	24cc#\	.
.	24ee\JJ	.
8c# 8A 8G\	8bb\L	.
.	8qaa/	.
8c#J 8A 8G\	16.gg\L	.
.	32ee\JJk	.
=15	=15	=15
8DL 8DD\	16.dd\LL	.
.	32ff#\K	.
8d 8A 8F#\	16aa\	.
.	16bb\JJ	.
!	!LO:TUP:a:problem:klamra łukowa	!
8c#J 8A 8G\	24aa\LL	.
.	24gg\	.
.	24ee\JJ	.
=16	=16	=16
8D 8DD/	8dd\	.
4d 4A 4F# 4D\	4ddd 4ff# 4dd\	.
!!LO:LB:g=original
=17:|!;<	=17:|!;	=17:|!
*>B	*>B	*>B
!!!key: d
*k[fncnb-]	*k[fncnb-]	*
!LO:TX:t=P:problem:znakiFn Cn BB-	!LO:TX:t=P:problem:znaki ffn ccn b-	!
8AL 8D\	8ffnL 8fn\	pp
8A 8D\	8ff 8f\	.
8AJ 8D\	8ffJ 8f\	.
=18	=18	=18
*^	*	*
!	!	!LO:TUP:a:problem:klamra łukowa	!
4A/	8D\L	24ff\LL	.
.	.	24gg\	.
.	.	24ff\JJ	.
.	8G 8E\	8ee\L	.
8ryy	8F#X\J	8dd\J	.
*v	*v	*	*
=19	=19	=19
8GG/	8bb-XL 8b-X\	.
8c#XL 8G 8E\	8bb-J 8b-\	.
!	!LO:TUP:a:problem:klamra łukowa	!
8c#J 8G 8E\	24bb-\LL	.
.	24ccc\	.
.	24aa\JJ	.
=20	=20	=20
8AA 8AAA/	16aaLL 16a\	.
.	16eeJJ 16e\	.
4e 4c#X 4A\	8.aaL 8.a\	.
.	16ggJk 16g\	.
=21	=21	=21
!	!LO:TUP:a:problem:klamra łukowa	!
8D 8DD/	24ff\LL	.
.	24gg\	.
.	24ff\JJ	.
8dL 8A 8F\	8ee\L	.
8dJ 8A 8F\	8dd\J	.
!!LO:PB:g=original
=22	=22	=22
16G#XLL 16F 16D 16BB-X\	16ddd\LL	.
!LO:N:vis=16	!LO:N:vis=16	!
32r	32r	.
32G#JJk 32F 32D 32BB-\	32bb-\JJk	.
8G#L 8F 8D 8BB-\	8aaL 8a\	.
8G#J 8F 8D 8BB-\	8gg#XJ 8g#X'\	.
=23	=23	=23
*^	*	*
!	!	!	!LO:HP:b=2
8r	8AA\L	16aaLL 16a\	f <
.	.	32r	.
.	.	32aaJJk 32a\	.
8EL 8C#X/	8AA\	8aaL 8a'\	.
8FJ 8D/	8AA\J	8aaJ 8a'\	[
=24	=24	=24	=24
8GL 8E/	8AA\L	8aaL 8a'\	.
8F 8D/	8AA\	8aa 8a'\	.
8EJ 8C#X/	8AA\J	8aaJ 8a'\	.
*v	*v	*	*
=25	=25	=25
8AL 8D\	8ffL 8f'\	p
8A 8D\	8ff 8f'\	.
8AJ 8D\	8ffJ 8f'\	.
!!LO:LB:g=original
=26	=26	=26
!	!LO:TUP:a:problem:klamra łukowa	!
8A 8F 8D\	24ff\LL	.
.	24gg\	.
.	24ff\JJ	.
8r	8ee\L	.
8A-X 8F 8D 8BBn\	8dd\J	.
=27	=27	=27
16G 16E 16C\	16ccc 16gg 16ee 16cc\	f
16r	16r	.
16c 16G 16C\	16gg 16ee 16cc\	.
16r	16r	.
16G 16E 16C\	16ccc 16gg 16ee 16cc\	.
16r	16r	.
=28	=28	=28
!	!LO:TUP:a:problem:klamra łukowa	!
8F 8FF/	24aa\LL	.
.	24bb-\	.
.	24aa\JJ	.
8B-L 8E 8C\	8gg\L	.
8AJ 8F\	8ff\J	.
=29	=29	=29
*^	*	*
8r	4.BBn\	16.gg\LL	p
.	.	(8qgg/	.
.	.	32ff\JJk)	.
8G#XL 8F 8D/	.	8ee\L	.
8G#J 8F 8D/	.	8dd\J	.
!!LO:LB:g=original
=30	=30	=30	=30
8r	4.C\	16.cc\LL	.
.	.	32ff\JJk	.
8AL 8F/	.	8gg\L	.
8AJ 8F/	.	8aa\J	.
=31	=31	=31	=31
8r	4.C\	16ccc\LL	.
.	.	16bb-\JJ	.
8B-L 8G/	.	8dd\L	.
8B-J 8G/	.	8ee\J	.
*v	*v	*	*
=32	=32	=32
!!LO:TX:a:t=1a
*>B1	*>B1	*>B1
16A 16F\	16ff\	.
16r	16r	.
8A 8F\	8f 8c/	.
8r	8r	.
=33:|!	=33:|!	=33:|!
!!LO:TX:a:t=2a
*>B2	*>B2	*>B2
8A 8F\	16ff\LL	f
!	!LO:N:vis=16	!
.	32r	.
.	32aaJJk 32a\	.
8r	8aaL 8a\	.
!	!LO:TX:b:Bi:t=D&colon;C al&colon; \nFine	!
8A 8G 8AA\	8aaJ 8a\	.
!!LO:LB:g=original
=34||	=34||	=34||
*>C	*>C	*>C
!!!key: G
!!!OMD: TRIO
*k[f#bn]	*k[f#bn]	*
*M3/8	*M3/8	*
*^	*	*
!	!LO:TX:t=P:problem:błędnie znaki G# BB-	!LO:TX:t=P:problem:błędnie znaki f# gn	!
8GG/L	4.GG\	16.dd\LL	<
.	.	32gg\JJk	[
8D/	.	8..bbL 8..dd\	.
8G/J	.	.	.
.	.	32cccJk 32ee\	.
*v	*v	*	*
=35	=35	=35
8GG\L	16bbLL 16dd'\	.
.	16gg'\	.
8c 8A 8D\	16ff# 16cc'\	.
.	16aa'\J	.
8BJ 8G 8D\	8ggJ 8b\	.
=36	=36	=36
*^	*	*
8GG/L	4.GG\	16ddsSSS\LL	.
!	!	!LO:N:vis=16	!
.	.	32r	.
.	.	32gg\JJk	.
8D/	.	8bbL 8dd\	.
8G/J	.	16dddL 16ff#\	.
.	.	16cccJJ 16ee\	.
*v	*v	*	*
=37	=37	=37
8GG\L	16bbLL 16dd'\	.
.	16gg'\	.
8c 8A 8D\	16ff# 16cc'\	.
.	16aa'\J	.
8BJ 8G 8D\	8ggJ 8b\	.
!!LO:LB:g=original
=38	=38	=38
*^	*	*
8r	4.C\	16ggLL 16ee\	.
!	!	!LO:N:vis=16	!
.	.	32r	.
.	.	32cccJJk 32ee\	.
8cL 8G 8E/	.	8.eeeL 8.ccc\	.
8cJ 8G 8E/	.	.	.
.	.	16gggJk 16eee\	.
*v	*v	*	*
=39	=39	=39
*	*8va	*
*^	*	*
8r	4.D\	16eeeLL 16ccc\	.
.	.	16ddd 16bb\	.
8BL 8G/	.	16cccn 16aa#X\	.
.	.	16ddd 16bb\	.
8BJ 8G/	.	16eee 16cccn\	.
.	.	16dddJJ 16bb\	.
*v	*v	*	*
=40	=40	=40
.	(8qcccn/	.
8C\L	16eee\LL)	.
!	!LO:N:vis=16	!
.	32r	.
.	32eee\JJk	.
*	*X8va	*
8A 8F# 8D\	8dT/L	.
8cJ 8A 8D\	16e/L	.
.	16f#/JJ	.
=41	=41	=41
8GG/	8g/	.
!	!LO:TX:b:Bi:t=D.C&colon; al&colon; \nFine.	!
4G 4D 4GG/	4gg 4dd 4b 4g\	>]
=:|!	=:|!	=:|!
*-	*-	*-
!!!system-decoration: {(*)}
!!!RDF**kern: < = below
!!!ENC: Berenika Jozajtis
!!!END: 2023-07-11
!!!ENC: Marta Lawrence
!!!END: 2023-07-18
!!!YEC: Copyright 2022 Narodowy Instytut Fryderyka Chopina (https://polishscores.org)
!!!YEM: License CC-BY-4.0 (https://creativecommons.org/licenses/by/4.0)
